resources/haticons/SVG/sort_by_alpha.svg

<!-- Generated by IcoMoon.io -->
<svg version="1.1" xmlns="http://www.w3.org/2000/svg" width="24" height="24" viewBox="0 0 24 24">
<title>sort_by_alpha</title>
<path d="M15.75 16.125h6.094v1.594h-8.531v-1.266l5.906-8.578h-5.859v-1.594h8.297v1.266zM4.969 13.641h3.891l-1.969-5.203zM6.094 6.281h1.641l4.5 11.438h-1.828l-0.938-2.438h-5.109l-0.938 2.438h-1.828zM10.266 19.359h4.641l-2.344 2.344zM14.953 4.641h-4.734l2.344-2.344z"></path>
</svg>

<svg xmlns="http://www.w3.org/2000/svg" width="24" height="24"><path d="M15.75 16.125h6.094v1.594h-8.531v-1.266l5.906-8.578H13.36V6.281h8.297v1.266zM4.969 13.641H8.86L6.891 8.438zm1.125-7.36h1.641l4.5 11.438h-1.828l-.938-2.438H4.36l-.938 2.438H1.594zm4.172 13.078h4.641l-2.344 2.344zm4.687-14.718h-4.734l2.344-2.344z"/></svg>
